svgs/sharp-solid/border-outer.svg

<svg xmlns="http://www.w3.org/2000/svg" viewBox="0 0 448 512"><!--! Font Awesome Pro 6.6.0 by @fontawesome - https://fontawesome.com License - https://fontawesome.com/license (Commercial License) Copyright 2024 Fonticons, Inc. --><path d="M64 96l0 320 320 0 0-320L64 96zM0 32l64 0 320 0 64 0 0 64 0 320 0 64-64 0L64 480 0 480l0-64L0 96 0 32zm256 96l0 64-64 0 0-64 64 0zM96 224l64 0 0 64-64 0 0-64zm160 0l0 64-64 0 0-64 64 0zm32 0l64 0 0 64-64 0 0-64zm-32 96l0 64-64 0 0-64 64 0z"/></svg>

<svg xmlns="http://www.w3.org/2000/svg" viewBox="0 0 448 512"><!--! Font Awesome Pro 6.4.2 by @fontawesome - https://fontawesome.com License - https://fontawesome.com/license (Commercial License) Copyright 2023 Fonticons, Inc. --><path d="M64 96V416H384V96H64zM0 32H64 384h64V96 416v64H384 64 0V416 96 32zm256 96v64H192V128h64zM96 224h64v64H96V224zm160 0v64H192V224h64zm32 0h64v64H288V224zm-32 96v64H192V320h64z"/></svg>
